X: 0101
T: Abernethy Lassies - 8x32R
P: Bill
C: Nan Main
B: Miss Milligan's Miscellany v.1 #0101
B: Originally Ours v.1 p.169 #MMM-0101
Z: 2020 John Chambers <jc:trillian.mit.edu>
M: 4/4
L: 1/8
R: reel
K: A
%
e |\
"A"ABcd "E/A"e2c2 | "G#/E7"d2B2 "E7"G2E2 | "A"A2a2 "E/A"(3aba ga | "G#/E7"b2B2 "E7"B3c |\
"D"defg abc'd' | "A"e'd'c'b agfe | "E7"dcBA GFED | "A"C2D2 "E7"E2G2 ||
"A"A2a2 "C#/A"agab | "A"c'bag "C#/A"a2e2 | "Bm"f2b2 "D/Bm"b^abc' | "E7"d'c'ba "G#/E7"gfed |\
"A"cBAG "C#/A"FEDC | "D"DEFG "C#/A"A2e2 | "B7"dcBA "E7"GFED | "A"C2A,2 A,3 :|
